icon/protonvpn.svg

<svg width="36" height="36" viewBox="0 0 36 36" fill="none" xmlns="http://www.w3.org/2000/svg">
<path fill-rule="evenodd" clip-rule="evenodd" d="M14.4604 32.3342C15.8285 34.7938 19.3421 34.927 20.8954 32.5782L35.3794 10.6766C36.9154 8.35395 35.4458 5.24 32.6644 4.92352L4.19563 1.68429C1.16044 1.33894 -1.00064 4.53936 0.475652 7.19335L0.591429 7.4004L13.2943 16.1047L13.14 29.9518L14.4604 32.3342Z" fill="url(#paint0_linear_2219_320)"/>
<path d="M15.2761 30.04L16.5615 28.1228L26.3255 13.3737C27.1792 12.0842 26.3644 10.3543 24.8198 10.177L0.588043 7.395L13.1408 29.9617C13.5989 30.7694 14.7573 30.8138 15.2761 30.04Z" fill="url(#paint1_radial_2219_320)"/>
<defs>
<linearGradient id="paint0_linear_2219_320" x1="32.5544" y1="32.3325" x2="9.39018" y2="-7.61453" gradientUnits="userSpaceOnUse">
<stop offset="0.0660125" stop-color="#8EFFEE"/>
<stop offset="0.4499" stop-color="#C9C7FF"/>
<stop offset="1" stop-color="#7341FF"/>
</linearGradient>
<radialGradient id="paint1_radial_2219_320" cx="0" cy="0" r="1" gradientUnits="userSpaceOnUse" gradientTransform="translate(15.3094 -2.93584) rotate(93.7553) scale(36.7555 47.4002)">
<stop offset="0.403126" stop-color="#6D4AFF"/>
<stop offset="0.9944" stop-color="#00F0C3"/>
</radialGradient>
</defs>
</svg>

<svg xmlns="http://www.w3.org/2000/svg" width="36" height="36" fill="none" viewBox="0 0 36 36"><path fill="url(#a)" fill-rule="evenodd" d="M14.46 32.334c1.368 2.46 4.882 2.593 6.435.244L35.38 10.677c1.536-2.323.067-5.437-2.715-5.753L4.196 1.684C1.16 1.34-1.001 4.54.476 7.194L.59 7.4l12.703 8.705-.154 13.847z" clip-rule="evenodd"/><path fill="url(#b)" d="m15.276 30.04 1.285-1.917 9.765-14.75c.853-1.289.038-3.019-1.506-3.196L.588 7.395l12.553 22.567a1.258 1.258 0 0 0 2.135.078"/><defs><radialGradient id="b" cx="0" cy="0" r="1" gradientTransform="rotate(93.755 9.03 5.7)scale(36.7555 47.4002)" gradientUnits="userSpaceOnUse"><stop offset=".403" stop-color="#6d4aff"/><stop offset=".994" stop-color="#00f0c3"/></radialGradient><linearGradient id="a" x1="32.554" x2="9.39" y1="32.333" y2="-7.615" gradientUnits="userSpaceOnUse"><stop offset=".066" stop-color="#8effee"/><stop offset=".45" stop-color="#c9c7ff"/><stop offset="1" stop-color="#7341ff"/></linearGradient></defs></svg>
